X:184
T:Snow Leopard
M:4/4
L:1/8
C:Diarmaid Moynihan
S:Calico Songdogs
R:Reel
K:Em
(E | F)~B3 FADE | F ~B3 edcA | F ~B3 FBcd |fBdf edce |
f ~B3 FADE | F ~B3 edcA | ~B2 FE F ~B3| edcd B3 z :||
|ABfe f ~B3 | edcB  A ~E3 | ABfe f ~B3 | ceAc e4 |
ABfe f ~B3 | edcB A ~E3 | B2 FE F ~B3 | edcd B4 :||
